**kern
*staff1
!!pagebreak:original
*I"P1
=1-
*clefG2
*k[b-e-a-]
*met(c|)
*M2/2
8G/
2.A-/
8G/
=2
4.B-/
8G/
4.e-/
8d/
=3
4c/
4e-/
[2g/
=4
4g/]
8f/L
8g/J
4a-/
8e-/L
8f/J
=5
4g/
4c/
4e-/
4d/
=6
4f/
8c/L
8c/J
4c/
4d/
=7
4A-/
=
*-
